X: 6
T: The Pigeon On The Gate
R: reel
M: 4/4
L: 1/8
K: Gdor
Ac|dG ~G2 dcAc|~d3e dcAB|cF ~F2 cFAB|~c3f dcAc|dG ~G2 dcAc|~d3e dcAG|FAcf abga|fdcA G2:|(3ABc|dg g/2g/2g fagf|dgga bgaf|dc c/2c/2c =Bcde|f2 eg fdcA|Gg g/2g/2g fagf|dgga bgaf|dc=Bc gceg|fdcA G2:|


Tune 517	Setting 13455

